src/assets/userDetailImg2.svg

<svg width="72" height="72" viewBox="0 0 72 72" fill="none" xmlns="http://www.w3.org/2000/svg">
<circle cx="36" cy="36" r="35.5" fill="white" stroke="#DDDDDD"/>
<path d="M19.5 54H40.5C41.325 54 42 53.325 42 52.5C42 51.675 41.325 51 40.5 51H21V49.695C21 49.14 21.3525 48.645 21.8775 48.4575L31.995 44.9175C32.595 44.7075 33 44.1375 33 43.5V40.5C33 39.675 32.325 39 31.5 39C29.6325 38.9775 27.81 38.415 26.25 37.38C27.75 35.6025 30 31.95 30 25.56C30.0975 23.13 32.9025 21 36 21C39.0975 21 41.9025 23.13 42 25.5C42 31.935 44.19 35.6025 45.75 37.3875C44.19 38.4225 42.3675 38.9775 40.5 39C39.675 39 39 39.675 39 40.5V43.5C39 44.325 39.675 45 40.5 45C41.325 45 42 44.325 42 43.5V41.9025C44.64 41.535 47.1 40.365 49.0575 38.5575C49.3725 38.2425 49.5375 37.8075 49.5 37.365C49.4625 36.9225 49.23 36.5175 48.8625 36.2625C48.69 36.15 45 33.4725 45 25.44C44.8275 21.405 40.71 18 36 18C31.29 18 27.1725 21.405 27 25.5C27 33.4725 23.31 36.15 23.1675 36.255C22.7925 36.5025 22.545 36.9 22.5 37.35C22.455 37.8 22.62 38.2425 22.935 38.5575C24.8925 40.365 27.36 41.535 30 41.9025V42.435L20.88 45.63C19.155 46.2375 18 47.865 18 49.695V52.5C18 53.325 18.675 54 19.5 54Z" fill="#F6AE24"/>
<path d="M52.5 46.5H49.5V43.5C49.5 42.675 48.825 42 48 42C47.175 42 46.5 42.675 46.5 43.5V46.5H43.5C42.675 46.5 42 47.175 42 48C42 48.825 42.675 49.5 43.5 49.5H46.5V52.5C46.5 53.325 47.175 54 48 54C48.825 54 49.5 53.325 49.5 52.5V49.5H52.5C53.325 49.5 54 48.825 54 48C54 47.175 53.325 46.5 52.5 46.5Z" fill="#F6AE24"/>
</svg>

<svg xmlns="http://www.w3.org/2000/svg" width="72" height="72" fill="none"><circle cx="36" cy="36" r="35.5" fill="#fff" stroke="#DDD"/><path fill="#F6AE24" d="M19.5 54h21c.825 0 1.5-.675 1.5-1.5s-.675-1.5-1.5-1.5H21v-1.305c0-.555.352-1.05.878-1.237l10.117-3.54c.6-.21 1.005-.78 1.005-1.418v-3c0-.825-.675-1.5-1.5-1.5a9.7 9.7 0 0 1-5.25-1.62c1.5-1.778 3.75-5.43 3.75-11.82.098-2.43 2.903-4.56 6-4.56s5.903 2.13 6 4.5c0 6.435 2.19 10.103 3.75 11.888A9.7 9.7 0 0 1 40.5 39c-.825 0-1.5.675-1.5 1.5v3c0 .825.675 1.5 1.5 1.5s1.5-.675 1.5-1.5v-1.597c2.64-.368 5.1-1.538 7.057-3.346.316-.315.48-.75.443-1.192a1.5 1.5 0 0 0-.638-1.102C48.69 36.15 45 33.473 45 25.44c-.172-4.035-4.29-7.44-9-7.44s-8.827 3.405-9 7.5c0 7.972-3.69 10.65-3.832 10.755a1.49 1.49 0 0 0-.668 1.095 1.5 1.5 0 0 0 .435 1.207A13.1 13.1 0 0 0 30 41.903v.532l-9.12 3.195A4.31 4.31 0 0 0 18 49.695V52.5c0 .825.675 1.5 1.5 1.5"/><path fill="#F6AE24" d="M52.5 46.5h-3v-3c0-.825-.675-1.5-1.5-1.5s-1.5.675-1.5 1.5v3h-3c-.825 0-1.5.675-1.5 1.5s.675 1.5 1.5 1.5h3v3c0 .825.675 1.5 1.5 1.5s1.5-.675 1.5-1.5v-3h3c.825 0 1.5-.675 1.5-1.5s-.675-1.5-1.5-1.5"/></svg>
